Pods/ProtonCore-UIFoundations/libraries/UIFoundations/Sources/Assets.xcassets/Images/IconSet/ic-wrench.imageset/ic-wrench.svg

<svg width="24" height="24" viewBox="0 0 24 24" fill="none" xmlns="http://www.w3.org/2000/svg">
<path fill-rule="evenodd" clip-rule="evenodd" d="M10.7401 3.51757C12.7852 1.47243 15.7949 0.983092 18.3013 2.04505C18.5357 2.14436 18.7054 2.35368 18.754 2.60353C18.8027 2.85339 18.724 3.11108 18.544 3.29107L15.3594 6.47561L15.7203 8.27974L17.5244 8.64057L20.7089 5.45603C20.8889 5.27604 21.1466 5.1973 21.3965 5.24595C21.6463 5.29461 21.8556 5.46428 21.9549 5.69866C23.0169 8.20506 22.5276 11.2148 20.4824 13.2599C18.7928 14.9495 16.4443 15.5771 14.2667 15.1457L8.03335 21.3791C6.53875 22.8736 4.11554 22.8736 2.62095 21.3791C1.12635 19.8845 1.12635 17.4612 2.62094 15.9667L8.85426 9.73334C8.4229 7.5557 9.0505 5.20717 10.7401 3.51757ZM16.556 3.11404C14.8891 2.81702 13.1095 3.31315 11.8226 4.60005C10.4209 6.00172 9.95721 7.98719 10.4352 9.77694C10.5057 10.0409 10.4301 10.3225 10.2369 10.5157L3.70343 17.0491C2.80667 17.9459 2.80667 19.3998 3.70343 20.2966C4.60018 21.1933 6.05411 21.1933 6.95087 20.2966L13.4843 13.7631C13.6775 13.5699 13.9591 13.4943 14.2231 13.5648C16.0128 14.0428 17.9983 13.5791 19.3999 12.1774C20.6868 10.8905 21.183 9.11092 20.886 7.44396L18.3172 10.0127C18.1362 10.1937 17.8768 10.2722 17.6259 10.222L14.9197 9.6808C14.6166 9.62019 14.3798 9.38335 14.3192 9.08034L13.778 6.37414C13.7278 6.12319 13.8063 5.86375 13.9873 5.68279L16.556 3.11404Z" fill="#0C0C14"/>
</svg>

<svg xmlns="http://www.w3.org/2000/svg" width="24" height="24" viewBox="0 0 24 24">
  <g class="ic-wrench">
    <path fill-rule="evenodd" d="M10.74 3.518a6.89 6.89 0 0 1 7.561-1.473.765.765 0 0 1 .243 1.246l-3.185 3.185.361 1.804 1.804.36 3.185-3.184a.766.766 0 0 1 1.246.243 6.89 6.89 0 0 1-7.688 9.447l-6.234 6.233a3.827 3.827 0 0 1-5.412-5.412l6.233-6.234a6.883 6.883 0 0 1 1.886-6.215Zm5.816-.404A5.352 5.352 0 0 0 11.823 4.6a5.355 5.355 0 0 0-1.388 5.177.766.766 0 0 1-.198.739l-6.534 6.533a2.296 2.296 0 0 0 3.248 3.248l6.533-6.534a.766.766 0 0 1 .74-.198 5.355 5.355 0 0 0 5.176-1.388 5.352 5.352 0 0 0 1.486-4.733l-2.569 2.569a.765.765 0 0 1-.691.209l-2.706-.541a.765.765 0 0 1-.6-.6l-.542-2.707a.765.765 0 0 1 .21-.691l2.568-2.569Z" class="Icon"/>
  </g>
</svg>
